svgs/disconnect.svg

<svg width="192" height="192" viewBox="0 0 192 192" fill="none" xmlns="http://www.w3.org/2000/svg"><path d="M136 56.5a6 6 0 1 0 12 0h-12Zm12 77a6 6 0 1 0-12 0h12ZM54 52h84V40H54v12Zm6-24h72V16H60v12Zm72 0c2.226 0 4 1.774 4 4h12c0-8.854-7.146-16-16-16v12Zm4 132c0 2.226-1.774 4-4 4v12c8.854 0 16-7.146 16-16h-12Zm-4 4H60v12h72v-12Zm-72 0c-2.226 0-4-1.774-4-4H44c0 8.854 7.146 16 16 16v-12Zm-4-4V32H44v128h12Zm0-128c0-2.226 1.774-4 4-4V16c-8.854 0-16 7.146-16 16h12Zm-2 120h84v-12H54v12Zm82-120v24.5h12V32h-12Zm0 101.5V160h12v-26.5h-12Z" fill="#000"/><circle cx="142" cy="95" r="24" stroke="#000" stroke-width="12"/><path d="m125.5 113 33-33" stroke="#000" stroke-width="12" stroke-linejoin="round"/></svg>

<svg width="192" height="192" viewBox="0 0 192 192" fill="none" xmlns="http://www.w3.org/2000/svg">
<path d="M136 56.5C136 59.8137 138.686 62.5 142 62.5C145.314 62.5 148 59.8137 148 56.5H136ZM148 133.5C148 130.186 145.314 127.5 142 127.5C138.686 127.5 136 130.186 136 133.5H148ZM54 52H138V40H54V52ZM60 28H132V16H60V28ZM132 28C134.226 28 136 29.7737 136 32H148C148 23.1463 140.854 16 132 16V28ZM136 160C136 162.226 134.226 164 132 164V176C140.854 176 148 168.854 148 160H136ZM132 164H60V176H132V164ZM60 164C57.7737 164 56 162.226 56 160H44C44 168.854 51.1463 176 60 176V164ZM56 160V32H44V160H56ZM56 32C56 29.7737 57.7737 28 60 28V16C51.1463 16 44 23.1463 44 32H56ZM54 152H138V140H54V152ZM136 32V56.5H148V32H136ZM136 133.5V160H148V133.5H136Z" fill="black"/>
<circle cx="142" cy="95" r="24" stroke="black" stroke-width="12"/>
<path d="M125.5 113L158.5 80" stroke="black" stroke-width="12" stroke-linejoin="round"/>
</svg>
